X:1
T:Title
%%score { ( 1 3 ) | ( 2 4 ) }
L:1/8
Q:1/4=114
M:4/4
K:F
V:1 treble nm="Grand Piano"
V:3 treble 
V:2 bass 
V:4 bass 
V:1
 A2 F>G A2 A2 | B4 A4 | [DG]2 [DG]>[DG] E2 E2 | F6 z2 | z4 z2 A2 | B4 A4 | G2 c>c =B2 d2 | %7
w: E.~Lester~Thurman * * * *|||||||
 [Ec]6 z2 | c2 e>d c2 d2 | [Ac]4 A4 | c2 e>d c2 [GB]2 | A6 z2 | A2 F>G A2 A2 | c4 B4 | %14
w: |||||||
 A2 F>[DFB] [CEA]3 [B,CG] | [A,CF]6 z2 | c2 c>c d2 e2 | [Af]4 [FAc]4 | %18
w: ||||
 [FAd]2 [FAd]>[FAd] [DG=B]2 [FGB]2 | [EGc]4 B4 | A2 F>G A2 A2 | c4 B4 | A2 F>[DFB] [CEA]3 [B,CG] | %23
w: |||||
 [A,CF]6 z2 |] %24
w: |
V:2
 [F,CF]2 [F,A,]>[F,B,F] [F,CF]2 [F,^CF]2 | [F,DF]4 [F,CF]4 | %2
 [B,,B,]2 [B,,B,]>[B,,B,] [C,G,C]2 [C,B,C]2 | [F,A,C]6 z2 | %4
 [F,CF]2 [F,A,]>[F,B,F] [F,CF]2 .[F,F]2 | [F,DF]4 [F,CF]4 | %6
 [G,CE]2 [G,EG]>[G,EG] [G,DG]2 [G,=B,F]2 | [C,C]6 z2 | [CEB]2 [CB]>[CDB] [CEB]2 [CEB]2 | %9
 [F,F]4 [F,CF]4 | [CEB]2 [CB]>[CDB] [CEA]2[K:bass] [C,C]2 | [F,CF]6 z2 | %12
 [F,CF]2 [F,A,]>[F,B,F] [F,CF]2 [F,CF]2 | [A,_EF]4 [B,DF]4 | [CF]2[K:bass] [C,A,]>C, C,3 C, | %15
 F,6 z2 | C2 [CEB]>[CEB] [CDB]2 [CB]2 | [F,C]4 F,4 | D,2 D,>D, G,2 G,2 | z4 [CE]4 | %20
 [F,CF]2 [F,A,]>[K:treble][F,B,F] [F,CF]2 [F,CF]2 | [A,_EF]4 [B,DF]4 | %22
 [CF]2[K:bass] [C,A,]>C, C,3 C, | F,6 z2 |] %24
V:3
 x8 | x8 | x8 | x8 | A2 F>G A2 z E | x8 | x8 | x8 | x8 | x8 | x8 | x8 | x8 | x8 | x8 | x8 | x8 | %17
 x8 | x8 | x8 | x8 | x8 | x8 | x8 |] %24
V:4
 x8 | x8 | x8 | x8 | x8 | x8 | x8 | x8 | x8 | x8 | x6[K:bass] x2 | x8 | x8 | x8 | x2[K:bass] x6 | %15
 x8 | x8 | x8 | x8 | C,8 | x7/2[K:treble] x9/2 | x8 | x2[K:bass] x6 | x8 |] %24

